X:1
T:Moonlight 2nd experiment
T:Moonlight 2nd experiment
T:Beethoven, arr: J Baron
C:Beethoven, arr: J Baron
%%score 1 2 3 4
L:1/8
Q:1/4=60
M:2/2
K:C
V:1 treble nm="Flute" snm="Fl."
V:2 treble transpose=-2 nm="B♭ Clarinet" snm="B♭ Cl."
V:3 treble transpose=-7 nm="Horn in F" snm="F Hn."
V:4 bass nm="Bassoon" snm="Bsn."
V:1
 z8 | z8 | z8 | z8 | z4 z2!ff! e>e | e6 e>e | e4 f4 | e4 d2 g2 | c2 z2 z4 | z4 z2 _e>e | _e6 e>e | %11
 _e6 =d2 | d4 _e2 c2 | d4 d4 | z4 z2 g2 | _a6 ^f2 | g6 g2 | _a6 ^f2 | g4 g4 | g4 =f4 | _e4 d4 | %21
 A4 A2 A2 | z4 z2 a>a | a6 a>a | a4 ^g2 a2 | b6 b2 | c'4 b2 a2 | (3^g^GB (3eGB (3=fGB (3dGB | %28
 (3z ^GB (3EGB (3FGB (3DGB | (3Cce (3ace (3c'ce (3ace | (3z CE (3ACE (3cCE (3ACE | %31
 (3EFD (3^GFB (3GdB (3fd^g | (3CAE (3cAe (3cae (3c'ae | (3A^dc (3^fda (3fc'a (3^d'c'^f' | %34
 (3d^gf (3bgd' (3bf'd' (3^g'f'b' | (3^g'd'f' (3bd'^g (3bfg (3dfB | (3d^GB (3FGD z2 z2 | z8 | z8 | %39
 z8 | z8 | z2 z2 z2 e>e | e6 e>e | e4 f4 | e4 d2 g2 | c2 z2 z2 g>g | g6 g>g | g4 ^g2 a2 | b4 c'4 | %49
 _b4 ^g4 | a6 a2 | _b6 ^g2 | a6 a2 | _b6 ^g2 | a4 a4 | =g6 g2 | f2 f2 e2 e2 | d4 e2 f2 | e4 e4 | %59
 z8 | z8 | (3EcA (3eca (3ec'a (3e'c'a | (3^gbf (3gdf (3BdF (3FED | (3AcA (3eca (3ec'a (3e'c'a | %64
 (3^gbf (3gdf (3BdF (3FED | z8 | z8 | z2 z2 c4 | c8 |] %69
V:2
[K:D] (3FBd (3FBd (3FBd (3FBd | (3FBd (3FBd (3FBd (3FBd | (3GBd (3GBd (3G=ce (3Gce | %3
 (3F^Ae (3FBd (3FB^c (3EAc | (3DFB (3FBd (3FBd (3FBd | (3Fce (3Fce (3Fce (3Fce | %6
 (3FBd (3FBd (3GBe (3GBe | (3FAd (3FAd (3GAc (3GAc | (3FAd (3FAd (3FAd (3FAd | %9
 (3=FAd (3FAd (3FAd (3FAd | (3=FA_e (3FAe (3FAe (3FAe | (3=F_Bd (3FAd (3F=Bd (3=EBd | %12
 (3EA=c (3EAc (3=FAB (3DAB | (3EA=c (3EAc (3E^GB (3EGB | (3A=ce (3Ace (3A^ce (3Ace | %15
 (3Ad=f (3Adf (3Adf (3Adf | (3A^ce (3Ace (3Ace (3Ace | (3Ad=f (3Adf (3Adf (3Adf | %18
 (3Ace (3Ace (3A=c^d (3Acd | (3AB^f (3AB^f (3=GBe (3=GBe | (3=FA=c (3FAc (3EG^c (3EGc | %21
 (3B,EG (3B,EG (3B,EF (3B,^DF | (3EGB (3GBe (3Beg (3Beg | (3Bfa (3Bfa (3Bfa (3Bfa | %24
 (3Beg (3Beg (3^Aeg (3Beg | (3cef (3cef (3cef (3cef | (3dfb (3dfb (3ceg (3Bd^g | z8 | z8 | z8 | %30
 z8 | z8 | z8 | z8 | z8 | z8 | z8 | z8 | z8 | z8 | z8 | (3DFB (3FBd (3FBd (3FBd | %42
 (3Fce (3Fce (3Fce (3Fce | (3FBd (3FBd (3GBe (3GBe | (3FAd (3FAd (3GAc (3GAc | %45
 (3FAd (3Adf (3Adf (3Adf | (3Aeg (3Aeg (3Aeg (3Aeg | (3Adf (3Adf (3^Aef (3Bdf | %48
 (3cef (3cef (3dfb (3dfb | (3=ceg (3ceg (3^Aef (3Aef | (3Bdf (3Bdf (3B^df (3Bdf | %51
 (3Beg (3Beg (3Beg (3Beg | (3B^df (3Bdf (3Bdf (3Bdf | (3Beg (3Beg (3Beg (3Beg | %54
 (3B^df (3Bdf (3Beg (3Beg | (3Aeg (3Aeg (3Aeg (3Adf | (3Gdf (3Gce (3Fce (3FBd | %57
 (3EBc (3EBc (3FBc (3FBc | (3FBd (3FBd (3E^Ac (3EAc | (3DFB (3FBd (3FBd (3FBd | %60
 (3Fce (3Fce (3Fce (3Fce | z8 | z8 | z8 | z8 | z8 | z8 | z2 z2 B4 | B8 |] %69
V:3
[K:G] E8 | D8 | C4 A,4 | B,4 B,4 | B,8 | B,8 | E4 A,4 | D4 D4 | G8 | G8 | =F8 | _E2 D2 ^C4 | %12
 D4 G,2 _B,2 | A,4 A,4 | D8 | D2 G2 _B2 G2 | D8 | D2 G2 _B2 G2 | D4 =B,4 | ^G,4 A,4 | D4 ^D4 | z8 | %22
 E,8 | =E8 | A4 F2 E2 | ^D6 D2 | E4 A,2 ^A,2 | B,8 | B,8 | B,8 | B,8 | B,8 | B,8 | B,8 | B,8 | %35
 B,8 | B,4 (3cFA (3EAc | (3^DAB (3cBA (3FAc (3EAc | B,8 | (3^DAB (3cBA (3EGe (3EGe | A,4 B,4 | z8 | %42
 z8 | E4 A,4 | D4 D4 | G8 | F8 | G4 F2 E2 | ^D4 E4 | A,4 B,4 | E8 | E2 A2 c2 A2 | E8 | %53
 E2 A2 c2 A2 | E4 A,4 | F6 G2 | E2 F2 ^D2 E2 | C4 B,2 A,2 | B,4 B,4 | B,6!ff! B,>B, |!mf! B,8 | %61
 B,6!ff! B,>B, | B,8 | E8 | B,8 | (3eBe (3geB (3EGB (3eBG | E,4 z4 | B,4 B,4 | B,8 |] %69
V:4
 A,,8 | G,,8 | F,,4 D,,4 | E,,4 E,,4 | A,,8 | ^G,,8 | A,,4 F,,4 | G,,4 G,,4 | C,8 | C,8 | _B,,8 | %11
 _A,,2 G,,2 ^F,,4 | G,,4 z4 | z4 D,,4 | G,,8 | G,,2 C,2 _E,2 C,2 | G,,8 | G,,2 C,2 _E,2 C,2 | %18
 G,,4 =E,,4 | ^C,,4 D,,4 | G,,4 ^G,,4 | A,,4 A,,4 | D,,8 | ^C,8 | D,4 B,,2 A,,2 | ^G,,6 G,,2 | %26
 A,,4 B,,,2 ^B,,,2 | E,,8 | E,,8 | E,,8 | E,,8 | E,,8 | E,,8 | E,,8 | E,,8 | E,,8 | E,,8 | E,,8 | %38
 (3^G,DE (3FED (3_B,DF (3A,DF | E,,4 F,,4 | (3B,FA (3B,FA (3B,E^G (3B,EG | A,,8 | ^G,,8 | %43
 A,,4 D,,4 | G,,4 G,,4 | C,8 | B,,8 | C,4 B,,2 A,,2 | ^G,,4 A,,4 | D,,4 E,,4 | A,,8 | %51
 A,,2 D,2 F,2 D,2 | A,,8 | A,,2 D,2 F,2 D,2 | A,,4 D,,4 | B,,6 C,2 | A,,2 B,,2 ^G,,2 A,,2 | %57
 F,,4 E,,2 D,,2 | E,,4 E,,4 | A,,8 | E,,6!ff! E,>E, |!mf! A,,8 | E,6!ff! E,>E, | E,6 E,>E, | %64
 E,6 E,>E, | A,,8 | (3E,A,C (3ECA, (3E,A,E, (3C,E,C, | A,,4 A,,4 | A,,8 |] %69

